X:607
T: ICH GING DURCH EINEN GRASGRUENEN WALD
N: E0563
O: Europa, Mitteleuropa, Deutschland, Hessen, Darmstadt
R: Liebes - Lied
M: 6/8
L: 1/16
K: G
D2 | G4G2B2G2B2 | d3edcB4
A2 | B2A2B2d3cB2 | A6G4
G2 | A2A2B2c4A2 | B2B2c2d4
B2 | A4B2c2B2A2 | B4c2d4
A2 | B2A2B2d3cB2 | A6G4

